src/icons/join.svg

<?xml version="1.0" encoding="iso-8859-1"?>
<!-- Generator: Adobe Illustrator 19.0.0, SVG Export Plug-In . SVG Version: 6.00 Build 0)  -->
<svg version="1.1" id="Capa_1" xmlns="http://www.w3.org/2000/svg" xmlns:xlink="http://www.w3.org/1999/xlink" x="0px" y="0px"
	 viewBox="0 0 52 52" style="enable-background:new 0 0 52 52;" xml:space="preserve">
<path d="M26,0C11.664,0,0,11.663,0,26s11.664,26,26,26s26-11.663,26-26S40.336,0,26,0z M38.5,28H28v11c0,1.104-0.896,2-2,2
	s-2-0.896-2-2V28H13.5c-1.104,0-2-0.896-2-2s0.896-2,2-2H24V14c0-1.104,0.896-2,2-2s2,0.896,2,2v10h10.5c1.104,0,2,0.896,2,2
	S39.604,28,38.5,28z"/>
<g>
</g>
<g>
</g>
<g>
</g>
<g>
</g>
<g>
</g>
<g>
</g>
<g>
</g>
<g>
</g>
<g>
</g>
<g>
</g>
<g>
</g>
<g>
</g>
<g>
</g>
<g>
</g>
<g>
</g>
</svg>

<?xml version="1.0" encoding="UTF-8"?>
<svg width="52px" height="52px" viewBox="0 0 52 52" version="1.1" xmlns="http://www.w3.org/2000/svg" xmlns:xlink="http://www.w3.org/1999/xlink">
    <!-- Generator: Sketch 46.2 (44496) - http://www.bohemiancoding.com/sketch -->
    <title>join</title>
    <desc>Created with Sketch.</desc>
    <defs></defs>
    <g id="Page-1" stroke="none" stroke-width="1" fill="none" fill-rule="evenodd">
        <g id="join" fill-rule="nonzero" fill="#000000">
            <path d="M26,0 C11.664,0 0,11.663 0,26 C0,40.337 11.664,52 26,52 C40.336,52 52,40.337 52,26 C52,11.663 40.336,0 26,0 Z M38.5,28 L28,28 L28,39 C28,40.104 27.104,41 26,41 C24.896,41 24,40.104 24,39 L24,28 L13.5,28 C12.396,28 11.5,27.104 11.5,26 C11.5,24.896 12.396,24 13.5,24 L24,24 L24,14 C24,12.896 24.896,12 26,12 C27.104,12 28,12.896 28,14 L28,24 L38.5,24 C39.604,24 40.5,24.896 40.5,26 C40.5,27.104 39.604,28 38.5,28 Z" id="Shape"></path>
        </g>
    </g>
</svg>
